Papirus/32x32/mimetypes/application-x.allegorithmic.substance.svg

<svg width="32" height="32" version="1.1" xmlns="http://www.w3.org/2000/svg">
 <path d="m7.25 5c-0.6925 0-1.25 0.5575-1.25 1.25v22.5c0 0.692 0.5575 1.25 1.25 1.25h17.5c0.692 0 1.25-0.558 1.25-1.25v-15.75l-8-8z" style="opacity:.2"/>
 <path d="m7.25 4c-0.6925 0-1.25 0.5575-1.25 1.25v22.5c0 0.692 0.5575 1.25 1.25 1.25h17.5c0.692 0 1.25-0.558 1.25-1.25v-15.75l-6-2-2-6z" style="fill:#53b848"/>
 <path d="m26 13-8-8v6.75c0 0.693 0.558 1.25 1.25 1.25z" style="opacity:.2"/>
 <path d="m26 12-8-8v6.75c0 0.693 0.558 1.25 1.25 1.25z" style="fill:#69d65d"/>
 <path d="M 7.25,4 C 6.5575,4 6,4.5575 6,5.25 v 1 C 6,5.5575 6.5575,5 7.25,5 H 18 V 4 Z" style="fill:#ffffff;opacity:.2"/>
 <path d="m18 16v3l1 0.5v0.75l3 1.035156v-3.285156zm-6 1-2 1v3l2.691406 0.896484c-0.425136-0.517549-0.691406-1.171396-0.691406-1.896484zm5.927734 3.642578c-0.242926 1.117736-1.105853 1.993386-2.21289 2.263672l2.685547 0.894531-2.400391 1.199219-3-1.5v-0.5l-3-1.035156v3.035156l6 3 6-3v-3z" style="fill:#0d0000;opacity:.2"/>
 <path d="M 17.785156,14.892578 C 17.921025,15.235559 18,15.607533 18,16 v 2 l 1,0.5 v 0.75 l 3,1.035156 V 17 Z M 12,16 10,17 v 3 l 2.087891,0.695312 C 12.034807,20.471213 12,20.240784 12,20 Z m 6,3.666016 V 20 c 0,0.932389 -0.430578,1.751369 -1.09375,2.300781 L 18.400391,22.798828 16,24 13,22.5 V 22.224609 C 12.783822,22.030297 12.597459,21.808198 12.445312,21.558594 L 10,20.714844 V 24 l 6,3 6,-3 v -3 z" style="fill:#fdffff"/>
 <path d="m13 4v9c0 1.1 0.895 2 2 2s2-0.9 2-2v-9z" style="opacity:.2"/>
 <path d="m15 15c-1.105333 0-2 0.9-2 2v4c0 1.1 0.895 2 2 2s2-0.9 2-2v-4c0-1.1-0.894667-2-2-2zm0 1c0.552 0 1 0.4 1 1 0 0.499999-0.448 1-1 1s-1-0.500001-1-1c0-0.6 0.448-1 1-1zm0 3c0.552285 0 1 0.447715 1 1v1c0 0.552285-0.447715 1-1 1s-1-0.447715-1-1v-1c0-0.552285 0.447715-1 1-1z" style="opacity:.2"/>
 <path d="m15 14c-1.105333 0-2 0.9-2 2v4c0 1.1 0.895 2 2 2s2-0.9 2-2v-4c0-1.1-0.894667-2-2-2zm0 1c0.552 0 1 0.4 1 1 0 0.499999-0.448 1-1 1s-1-0.500001-1-1c0-0.6 0.448-1 1-1zm0 3c0.552285 0 1 0.447715 1 1v1c0 0.552285-0.447715 1-1 1s-1-0.447715-1-1v-1c0-0.552285 0.447715-1 1-1z" style="fill:#dddddd"/>
 <path d="m14 4v1h1v-1zm0 2v1h1v-1zm0 2v1h1v-1zm0 2v1h1v-1zm0 2v1h1v-1z" style="fill:#dddddd"/>
 <path d="m15 5v1h1v-1zm0 2v1h1v-1zm0 2v1h1v-1zm0 2v1h1v-1zm0 2v1h1v-1z" style="opacity:.3"/>
</svg>

<svg xmlns="http://www.w3.org/2000/svg" width="32" height="32" version="1">
 <path style="opacity:0.2" d="M 7.25,5 C 6.5575,5 6,5.5575 6,6.25 v 22.5 C 6,29.442 6.5575,30 7.25,30 h 17.5 C 25.442,30 26,29.442 26,28.75 V 13 L 19.125,11.875 18,5 Z"/>
 <path style="fill:#53b848" d="M 7.25,4 C 6.5575,4 6,4.5575 6,5.25 V 27.75 C 6,28.442 6.5575,29 7.25,29 H 24.75 C 25.442,29 26,28.442 26,27.75 V 12 L 19.125,10.875 18,4 Z"/>
 <path fill="#fff" opacity=".2" d="m7.25 4c-0.6925 0-1.25 0.5575-1.25 1.25v1c0-0.6925 0.5575-1.25 1.25-1.25h10.75v-1z"/>
 <path style="opacity:0.2" d="M 18,5.0003 V 11.667 C 18,12.403 18.597,13 19.333,13 H 26 L 18,5 Z"/>
 <path style="fill:#69d65d" d="M 18,4 V 10.667 C 18,11.403 18.597,12 19.333,12 H 26 L 18,3.9997 Z"/>
 <g>
  <path style="opacity:0.2" d="m 13,4 v 9 c 0,1.1 0.895,2 2,2 1.105,0 2,-0.9 2,-2 V 4 Z"/>
  <path style="opacity:0.2" d="m 15,15 c -1.105333,0 -2,0.9 -2,2 v 4 c 0,1.1 0.895,2 2,2 1.105,0 2,-0.9 2,-2 v -4 c 0,-1.1 -0.894667,-2 -2,-2 z m 0,1 c 0.552,0 1,0.4 1,1 0,0.499999 -0.448,1 -1,1 -0.552,0 -1,-0.500001 -1,-1 0,-0.6 0.448,-1 1,-1 z m 0,3 c 0.552285,0 1,0.447715 1,1 v 1 c 0,0.552285 -0.447715,1 -1,1 -0.552285,0 -1,-0.447715 -1,-1 v -1 c 0,-0.552285 0.447715,-1 1,-1 z"/>
  <path style="fill:#dddddd" d="M 15,14 C 13.895,14 13,14.9 13,16 V 20 C 13,21.1 13.895,22 15,22 16.105,22 17,21.1 17,20 V 16 C 17,14.9 16.105,14 15,14 Z M 15,15 C 15.552,15 16,15.4 16,16 16,16.5 15.552,17 15,17 14.448,17 14,16.5 14,16 14,15.4 14.448,15 15,15 Z M 15,18 C 15.552,18 16,18.448 16,19 V 20 C 16,20.552 15.552,21 15,21 14.448,21 14,20.552 14,20 V 19 C 14,18.448 14.448,18 15,18 Z"/>
  <path style="opacity:0.5;fill:#ffffff" d="m 14,4 v 1 h 1 V 4 Z m 0,2 v 1 h 1 V 6 Z m 0,2 v 1 h 1 V 8 Z m 0,2 v 1 h 1 v -1 z m 0,2 v 1 h 1 v -1 z"/>
  <path style="opacity:0.3" d="M 15 5 L 15 6 L 16 6 L 16 5 L 15 5 z M 15 7 L 15 8 L 16 8 L 16 7 L 15 7 z M 15 9 L 15 10 L 16 10 L 16 9 L 15 9 z M 15 11 L 15 12 L 16 12 L 16 11 L 15 11 z M 15 13 L 15 14 L 16 14 L 16 13 L 15 13 z"/>
 </g>
 <path style="opacity:0.2" d="M 17.785,15.893 C 17.921,16.236 18,16.608 18,17 V 19 L 19,19.5 V 20.25 L 22,21.285 V 18 Z M 12,17 10,18 V 21 L 12.088,21.695 C 12.035,21.471 12,21.241 12,21 Z M 18,20.666 V 21 C 18,21.932 17.569,22.751 16.906,23.301 L 18.4,23.799 16,25 13,23.5 V 23.225 C 12.784,23.03 12.597,22.808 12.445,22.559 L 10,21.715 V 25 L 16,28 22,25 V 22 Z"/>
 <path style="fill:#fdffff" d="M 17.785,14.893 C 17.921,15.236 18,15.608 18,16 V 18 L 19,18.5 V 19.25 L 22,20.285 V 17 Z M 12,16 10,17 V 20 L 12.088,20.695 C 12.035,20.471 12,20.241 12,20 Z M 18,19.666 V 20 C 18,20.932 17.569,21.751 16.906,22.301 L 18.4,22.799 16,24 13,22.5 V 22.225 C 12.784,22.03 12.597,21.808 12.445,21.559 L 10,20.715 V 24 L 16,27 22,24 V 21 Z"/>
</svg>
